svg/openzfs-light.svg

<svg xmlns="http://www.w3.org/2000/svg" xml:space="preserve" viewBox="0 0 512 512"><path d="M-135.2 330c-5.4 5.4-14 5.4-19.4 0s-5.4-14.1 0-19.4c5.4-5.4 14-5.4 19.4 0 5.3 5.3 5.3 14 0 19.4m-3 383.6c-9.4 9.4-24.5 9.4-33.8 0-9.4-9.4-9.4-24.5 0-33.8 9.4-9.4 24.6-9.4 33.8 0 9.3 9.3 9.3 24.5 0 33.8m-80.1-46.2c-9.4-9.4-9.4-24.6 0-33.8 9.4-9.4 24.6-9.4 33.8 0 9.4 9.4 9.4 24.6 0 33.8-9.3 9.4-24.5 9.4-33.8 0m-12.2 46.2c-9.4 9.4-24.6 9.4-33.8 0-9.4-9.4-9.4-24.5 0-33.8 9.4-9.4 24.5-9.4 33.8 0 9.3 9.3 9.3 24.5 0 33.8m-80-46.2c-9.4-9.4-9.4-24.6 0-33.8 9.4-9.4 24.6-9.4 33.8 0 9.4 9.4 9.4 24.6 0 33.8-9.4 9.4-24.6 9.4-33.8 0m-12.3 46.2c-9.4 9.4-24.6 9.4-33.8 0-9.4-9.4-9.4-24.5 0-33.8 9.4-9.4 24.6-9.4 33.8 0 9.3 9.3 9.4 24.5 0 33.8m-80-46.2c-9.4-9.4-9.4-24.5 0-33.8 9.4-9.4 24.6-9.4 33.8 0 9.4 9.4 9.4 24.6 0 33.8-9.4 9.3-24.6 9.4-33.8 0m-12.3 46.2c-9.4 9.4-24.6 9.4-33.8 0-9.4-9.4-9.4-24.6 0-33.8 9.4-9.4 24.5-9.4 33.8 0 9.3 9.3 9.3 24.5 0 33.8M-452 312.3c5.4-5.4 14-5.4 19.4 0s5.4 14.1 0 19.4c-5.4 5.4-14.1 5.4-19.4 0s-5.4-14.1 0-19.4m29.8 29.8c5.4-5.4 14-5.4 19.4 0s5.4 14.1 0 19.4c-5.4 5.4-14.1 5.4-19.4 0-5.4-5.4-5.4-14.1 0-19.4m29.8 29.8c5.4-5.4 14.1-5.4 19.4 0 5.4 5.4 5.4 14.1 0 19.4-5.4 5.4-14 5.4-19.4 0s-5.4-14.1 0-19.4m0-59.6c5.4-5.4 14-5.4 19.4 0s5.4 14.1 0 19.4c-5.4 5.4-14 5.4-19.4 0-5.4-5.3-5.4-14.1 0-19.4m29.8 89.3c5.4-5.4 14.1-5.4 19.4 0 5.4 5.4 5.4 14.1 0 19.4-5.4 5.4-14 5.4-19.4 0-5.4-5.3-5.4-14 0-19.4m0-59.5c5.4-5.4 14-5.4 19.4 0s5.4 14.1 0 19.4c-5.4 5.4-14 5.4-19.4 0s-5.4-14.1 0-19.4m29.8-29.8c5.4-5.4 14-5.4 19.4 0s5.4 14.1 0 19.4c-5.4 5.4-14.1 5.4-19.4 0-5.4-5.3-5.4-14 0-19.4m29.7 89.3c5.4-5.4 14-5.4 19.4 0s5.4 14.1 0 19.4c-5.4 5.4-14 5.4-19.4 0-5.3-5.3-5.3-14 0-19.4m0-59.5c5.4-5.4 14-5.4 19.4 0s5.4 14.1 0 19.4c-5.4 5.4-14.1 5.4-19.4 0s-5.3-14.1 0-19.4m29.8-29.8c5.4-5.4 14.1-5.4 19.4 0 5.4 5.4 5.4 14.1 0 19.4-5.4 5.4-14 5.4-19.4 0-5.3-5.3-5.3-14 0-19.4m9.2 275.1c9.4-9.4 24.6-9.4 33.8 0 9.4 9.4 9.4 24.6 0 33.8-9.4 9.4-24.6 9.4-33.8 0-9.4-9.4-9.4-24.5 0-33.8m10.2-137.3c-5.4 5.4-14 5.4-19.4 0s-5.4-14.1 0-19.4c5.4-5.4 14.1-5.4 19.4 0 5.4 5.3 5.4 14 0 19.4m0-59.6c-5.4 5.4-14 5.4-19.4 0s-5.4-14.1 0-19.4c5.4-5.4 14.1-5.4 19.4 0 5.4 5.4 5.4 14.1 0 19.4m-49.2 70c5.4-5.4 14-5.4 19.4 0s5.4 14.1 0 19.4c-5.4 5.4-14 5.4-19.4 0-5.3-5.4-5.3-14.1 0-19.4m-7.2 80.7c9.4-9.4 24.6-9.4 33.8 0 9.4 9.4 9.4 24.5 0 33.8-9.4 9.4-24.6 9.4-33.8 0-9.4-9.3-9.4-24.5 0-33.8m-12.3 46.2c9.4 9.4 9.4 24.6 0 33.8-9.4 9.4-24.6 9.4-33.8 0-9.4-9.4-9.4-24.5 0-33.8 9.3-9.4 24.5-9.4 33.8 0m-10.2-216.3c5.4-5.4 14-5.4 19.4 0s5.4 14.1 0 19.4c-5.4 5.4-14 5.4-19.4 0-5.4-5.3-5.4-14 0-19.4m0 59.6c5.4-5.4 14-5.4 19.4 0s5.4 14.1 0 19.5-14.1 5.4-19.4 0c-5.4-5.5-5.4-14.2 0-19.5m89.3-29.8c5.4-5.4 14-5.4 19.4 0s5.4 14.1 0 19.4c-5.4 5.4-14 5.4-19.4 0-5.4-5.3-5.4-14 0-19.4m0-59.5c5.4-5.4 14-5.4 19.4 0s5.4 14.1 0 19.4c-5.4 5.4-14 5.4-19.4 0s-5.4-14.1 0-19.4m29.8 29.7c5.4-5.4 14.1-5.4 19.4 0 5.4 5.4 5.4 14.1 0 19.4-5.4 5.4-14 5.4-19.4 0-5.4-5.3-5.4-14 0-19.4m0-59.5c5.4-5.4 14.1-5.4 19.4 0 5.4 5.4 5.4 14 0 19.4s-14 5.4-19.4 0-5.4-14.1 0-19.4m29.8 29.7c5.4-5.4 14.1-5.4 19.4 0 5.4 5.4 5.4 14.1 0 19.4-5.4 5.4-14.1 5.4-19.4 0-5.4-5.3-5.4-14 0-19.4m148.4-45.1c0-21.7-17.6-39.4-39.4-39.4h-436.6c-21.7 0-39.4 17.6-39.4 39.4v149.9h58.6l-58.6 137V733c0 21.7 17.6 39.4 39.4 39.4h436.6c21.7 0 39.4-17.6 39.4-39.4V583.1h-58.6l58.6-137z" style="fill:#fff" transform="matrix(.989 0 0 .993 546 -255)"/></svg>

<?xml version="1.0" encoding="utf-8"?>
<!-- Generator: Adobe Illustrator 28.2.0, SVG Export Plug-In . SVG Version: 6.00 Build 0)  -->
<svg version="1.1"
	 id="Layer_1" xmlns:rdf="http://www.w3.org/1999/02/22-rdf-syntax-ns#" xmlns:dc="http://purl.org/dc/elements/1.1/" xmlns:cc="http://creativecommons.org/ns#"
	 xmlns="http://www.w3.org/2000/svg" xmlns:xlink="http://www.w3.org/1999/xlink" x="0px" y="0px" viewBox="0 0 512 512"
	 style="enable-background:new 0 0 512 512;" xml:space="preserve">
<style type="text/css">
	.st0{fill:#FFFFFF;}
</style>
<g transform="matrix(.989 0 0 .993 546 -255)">
	<path class="st0" d="M-135.2,330c-5.4,5.4-14,5.4-19.4,0c-5.4-5.4-5.4-14.1,0-19.4c5.4-5.4,14-5.4,19.4,0
		C-129.9,315.9-129.9,324.6-135.2,330 M-138.2,713.6c-9.4,9.4-24.5,9.4-33.8,0c-9.4-9.4-9.4-24.5,0-33.8c9.4-9.4,24.6-9.4,33.8,0
		C-128.9,689.1-128.9,704.3-138.2,713.6 M-218.3,667.4c-9.4-9.4-9.4-24.6,0-33.8c9.4-9.4,24.6-9.4,33.8,0c9.4,9.4,9.4,24.6,0,33.8
		C-193.8,676.8-209,676.8-218.3,667.4 M-230.5,713.6c-9.4,9.4-24.6,9.4-33.8,0c-9.4-9.4-9.4-24.5,0-33.8c9.4-9.4,24.5-9.4,33.8,0
		C-221.2,689.1-221.2,704.3-230.5,713.6 M-310.5,667.4c-9.4-9.4-9.4-24.6,0-33.8c9.4-9.4,24.6-9.4,33.8,0c9.4,9.4,9.4,24.6,0,33.8
		C-286.1,676.8-301.3,676.8-310.5,667.4 M-322.8,713.6c-9.4,9.4-24.6,9.4-33.8,0c-9.4-9.4-9.4-24.5,0-33.8c9.4-9.4,24.6-9.4,33.8,0
		C-313.5,689.1-313.4,704.3-322.8,713.6 M-402.8,667.4c-9.4-9.4-9.4-24.5,0-33.8c9.4-9.4,24.6-9.4,33.8,0c9.4,9.4,9.4,24.6,0,33.8
		C-378.4,676.7-393.6,676.8-402.8,667.4 M-415.1,713.6c-9.4,9.4-24.6,9.4-33.8,0c-9.4-9.4-9.4-24.6,0-33.8c9.4-9.4,24.5-9.4,33.8,0
		C-405.8,689.1-405.8,704.3-415.1,713.6 M-452,312.3c5.4-5.4,14-5.4,19.4,0c5.4,5.4,5.4,14.1,0,19.4c-5.4,5.4-14.1,5.4-19.4,0
		C-457.3,326.3-457.4,317.6-452,312.3 M-422.2,342.1c5.4-5.4,14-5.4,19.4,0c5.4,5.4,5.4,14.1,0,19.4c-5.4,5.4-14.1,5.4-19.4,0
		C-427.6,356.1-427.6,347.4-422.2,342.1 M-392.4,371.9c5.4-5.4,14.1-5.4,19.4,0c5.4,5.4,5.4,14.1,0,19.4c-5.4,5.4-14,5.4-19.4,0
		C-397.8,385.9-397.8,377.2-392.4,371.9 M-392.4,312.3c5.4-5.4,14-5.4,19.4,0c5.4,5.4,5.4,14.1,0,19.4c-5.4,5.4-14,5.4-19.4,0
		C-397.8,326.4-397.8,317.6-392.4,312.3 M-362.6,401.6c5.4-5.4,14.1-5.4,19.4,0c5.4,5.4,5.4,14.1,0,19.4c-5.4,5.4-14,5.4-19.4,0
		C-368,415.7-368,407-362.6,401.6 M-362.6,342.1c5.4-5.4,14-5.4,19.4,0c5.4,5.4,5.4,14.1,0,19.4c-5.4,5.4-14,5.4-19.4,0
		C-368,356.1-368,347.4-362.6,342.1 M-332.8,312.3c5.4-5.4,14-5.4,19.4,0c5.4,5.4,5.4,14.1,0,19.4c-5.4,5.4-14.1,5.4-19.4,0
		C-338.2,326.4-338.2,317.7-332.8,312.3 M-303.1,401.6c5.4-5.4,14-5.4,19.4,0c5.4,5.4,5.4,14.1,0,19.4c-5.4,5.4-14,5.4-19.4,0
		C-308.4,415.7-308.4,407-303.1,401.6 M-303.1,342.1c5.4-5.4,14-5.4,19.4,0s5.4,14.1,0,19.4c-5.4,5.4-14.1,5.4-19.4,0
		C-308.4,356.1-308.4,347.4-303.1,342.1 M-273.3,312.3c5.4-5.4,14.1-5.4,19.4,0c5.4,5.4,5.4,14.1,0,19.4c-5.4,5.4-14,5.4-19.4,0
		C-278.6,326.4-278.6,317.7-273.3,312.3 M-264.1,587.4c9.4-9.4,24.6-9.4,33.8,0c9.4,9.4,9.4,24.6,0,33.8c-9.4,9.4-24.6,9.4-33.8,0
		C-273.5,611.8-273.5,596.7-264.1,587.4 M-253.9,450.1c-5.4,5.4-14,5.4-19.4,0c-5.4-5.4-5.4-14.1,0-19.4c5.4-5.4,14.1-5.4,19.4,0
		C-248.5,436-248.5,444.7-253.9,450.1 M-253.9,390.5c-5.4,5.4-14,5.4-19.4,0c-5.4-5.4-5.4-14.1,0-19.4c5.4-5.4,14.1-5.4,19.4,0
		C-248.5,376.5-248.5,385.2-253.9,390.5 M-303.1,460.5c5.4-5.4,14-5.4,19.4,0c5.4,5.4,5.4,14.1,0,19.4c-5.4,5.4-14,5.4-19.4,0
		C-308.4,474.5-308.4,465.8-303.1,460.5 M-310.3,541.2c9.4-9.4,24.6-9.4,33.8,0c9.4,9.4,9.4,24.5,0,33.8c-9.4,9.4-24.6,9.4-33.8,0
		C-319.7,565.7-319.7,550.5-310.3,541.2 M-322.6,587.4c9.4,9.4,9.4,24.6,0,33.8c-9.4,9.4-24.6,9.4-33.8,0c-9.4-9.4-9.4-24.5,0-33.8
		C-347.1,578-331.9,578-322.6,587.4 M-332.8,371.1c5.4-5.4,14-5.4,19.4,0c5.4,5.4,5.4,14.1,0,19.4c-5.4,5.4-14,5.4-19.4,0
		C-338.2,385.2-338.2,376.5-332.8,371.1 M-332.8,430.7c5.4-5.4,14-5.4,19.4,0c5.4,5.4,5.4,14.1,0,19.5c-5.4,5.4-14.1,5.4-19.4,0
		C-338.2,444.7-338.2,436-332.8,430.7 M-243.5,400.9c5.4-5.4,14-5.4,19.4,0c5.4,5.4,5.4,14.1,0,19.4c-5.4,5.4-14,5.4-19.4,0
		C-248.9,415-248.9,406.3-243.5,400.9 M-243.5,341.4c5.4-5.4,14-5.4,19.4,0c5.4,5.4,5.4,14.1,0,19.4c-5.4,5.4-14,5.4-19.4,0
		C-248.9,355.4-248.9,346.7-243.5,341.4 M-213.7,371.1c5.4-5.4,14.1-5.4,19.4,0c5.4,5.4,5.4,14.1,0,19.4c-5.4,5.4-14,5.4-19.4,0
		C-219.1,385.2-219.1,376.5-213.7,371.1 M-213.7,311.6c5.4-5.4,14.1-5.4,19.4,0c5.4,5.4,5.4,14,0,19.4c-5.4,5.4-14,5.4-19.4,0
		C-219.1,325.6-219.1,316.9-213.7,311.6 M-183.9,341.3c5.4-5.4,14.1-5.4,19.4,0c5.4,5.4,5.4,14.1,0,19.4c-5.4,5.4-14.1,5.4-19.4,0
		C-189.3,355.4-189.3,346.7-183.9,341.3 M-35.5,296.2c0-21.7-17.6-39.4-39.4-39.4h-436.6c-21.7,0-39.4,17.6-39.4,39.4v149.9h58.6
		l-58.6,137V733c0,21.7,17.6,39.4,39.4,39.4h436.6c21.7,0,39.4-17.6,39.4-39.4V583.1h-58.6l58.6-137V296.2z"/>
</g>
</svg>
